assets/svg/icon_feed_scale.svg

<svg width="20" height="20" viewBox="0 0 20 20" fill="none" xmlns="http://www.w3.org/2000/svg">
<path d="M3.60495 16.3947C3.33221 16.1219 3.33221 15.6782 3.60495 15.4055L6.61085 12.3996H4.80154C4.41548 12.3996 4.10241 12.0865 4.10241 11.7005C4.10241 11.3144 4.41548 11.0013 4.80154 11.0013H8.30106C8.68712 11.0013 9.0002 11.3144 9.0002 11.7005V15.2C9.0002 15.586 8.68712 15.8991 8.30106 15.8991C7.915 15.8991 7.60193 15.586 7.60193 15.2V13.3907L4.59603 16.3966C4.32329 16.6693 3.87961 16.6693 3.60687 16.3966L3.60495 16.3947ZM11.6993 8.9994H15.1989C15.5849 8.9994 15.898 8.68633 15.898 8.30026C15.898 7.9142 15.5849 7.60113 15.1989 7.60113H13.3896L16.3955 4.59523C16.6644 4.31673 16.6567 3.87497 16.3782 3.60607C16.1073 3.34485 15.6771 3.34485 15.4063 3.60607L12.4004 6.61197V4.80266C12.4004 4.4166 12.0873 4.10353 11.7013 4.10353C11.3152 4.10353 11.0021 4.4166 11.0021 4.80266V8.30218C11.0021 8.68825 11.3152 9.00132 11.7013 9.00132L11.6993 8.9994Z" fill="#727689"/>
</svg>

<svg xmlns="http://www.w3.org/2000/svg" width="20" height="20" fill="none"><path fill="#727689" d="M3.605 16.395a.7.7 0 0 1 0-.99L6.61 12.4H4.8a.7.7 0 0 1 0-1.399h3.5a.7.7 0 0 1 .7.7V15.2a.7.7 0 0 1-1.4 0v-1.81l-3.005 3.007a.7.7 0 0 1-.99 0zm8.094-7.396h3.5a.7.7 0 0 0 0-1.398h-1.81l3.006-3.006a.699.699 0 0 0-.989-.989L12.4 6.612v-1.81a.7.7 0 0 0-1.398 0v3.5a.7.7 0 0 0 .7.7z"/></svg>
